X: 1582
T: Jacob Wolfe's Varsovienne
B: australian traditional tunes wiki
M:3/4
L:1/8
R: Varsovienne
Q: 1/4=100
K:G
V:1 
|:D>G|"G"B2G2E2|"D"HD4D>G|"G"B2G2e2|Hd4A>B|"D7"c2A2FE|HD4F>E|"A7"DE FG B>A|"G"HG4:|
d2|"G"g>gg2b2|d>dd2g2|Bdg2f2|"D7"e4d2|a>aa2c'2|f>ff2d2|a>aa2b2|"G"g4:|
% abcbook-tune_id 6342d53a1452bf349721b0f9


% abcbook-boost 0
% abcbook-tablature 
% abcbook-transpose 
% abcbook-lastupdated 1665324372381
% abcbook-soundfonts 
% abcbook-repeats 1
% NFF Book 2022
% Bush Traditions recording played by Ray Mulligan

